COLOR/categories 16/16/preferences-desktop-apps-symbolic.svg

<?xml version="1.0" encoding="UTF-8" standalone="no"?>
<svg
   xmlns:osb="http://www.openswatchbook.org/uri/2009/osb"
   xmlns:dc="http://purl.org/dc/elements/1.1/"
   xmlns:cc="http://creativecommons.org/ns#"
   xmlns:rdf="http://www.w3.org/1999/02/22-rdf-syntax-ns#"
   xmlns:svg="http://www.w3.org/2000/svg"
   xmlns="http://www.w3.org/2000/svg"
   xmlns:sodipodi="http://sodipodi.sourceforge.net/DTD/sodipodi-0.dtd"
   xmlns:inkscape="http://www.inkscape.org/namespaces/inkscape"
   height="16"
   id="svg7384"
   version="1.1"
   width="16"
   sodipodi:docname="preferences-desktop-apps-symbolic.svg"
   inkscape:version="0.92.4 (5da689c313, 2019-01-14)">
  <sodipodi:namedview
     pagecolor="#ffffff"
     bordercolor="#666666"
     borderopacity="1"
     objecttolerance="10"
     gridtolerance="10"
     guidetolerance="10"
     inkscape:pageopacity="0"
     inkscape:pageshadow="2"
     inkscape:window-width="1920"
     inkscape:window-height="1016"
     id="namedview21"
     showgrid="false"
     inkscape:zoom="52.375"
     inkscape:cx="8"
     inkscape:cy="8"
     inkscape:window-x="0"
     inkscape:window-y="27"
     inkscape:window-maximized="1"
     inkscape:current-layer="layer3" />
  <metadata
     id="metadata20854">
    <rdf:RDF>
      <cc:Work
         rdf:about="">
        <dc:title />
        <dc:format>image/svg+xml</dc:format>
        <dc:type
           rdf:resource="http://purl.org/dc/dcmitype/StillImage" />
      </cc:Work>
    </rdf:RDF>
  </metadata>
  <defs
     id="defs7386">
    <linearGradient
       id="linearGradient5606"
       osb:paint="solid">
      <stop
         id="stop5608"
         offset="0"
         style="stop-color:#000000;stop-opacity:1;" />
    </linearGradient>
    <linearGradient
       id="linearGradient4526"
       osb:paint="solid">
      <stop
         id="stop4528"
         offset="0"
         style="stop-color:#ffffff;stop-opacity:1;" />
    </linearGradient>
    <linearGradient
       id="linearGradient3600-4"
       osb:paint="gradient">
      <stop
         id="stop3602-7"
         offset="0"
         style="stop-color:#f4f4f4;stop-opacity:1" />
      <stop
         id="stop3604-6"
         offset="1"
         style="stop-color:#dbdbdb;stop-opacity:1" />
    </linearGradient>
  </defs>
  <g
     id="layer9"
     label="status"
     style="display:inline"
     transform="translate(-753.0002,-117)" />
  <g
     id="layer2"
     style="display:inline"
     transform="translate(-512,-484)" />
  <g
     id="layer4"
     style="display:inline"
     transform="translate(-512,-484)" />
  <g
     id="g1812"
     style="display:inline"
     transform="translate(-512,-484)" />
  <g
     id="g6217"
     style="display:inline"
     transform="translate(-512,-484)" />
  <g
     id="layer3"
     style="display:inline"
     transform="matrix(1.4,0,0,1.4,-720.00021,-680.80001)">
    <path
       d="m 515.80484,487.00001 c -0.53643,0 -0.80469,1.5e-4 -0.80469,0.625 v 0.75 c 0,0.62485 0.26826,0.625 0.80469,0.625 h 0.39062 c 0.53643,0 0.80469,-1.5e-4 0.80469,-0.625 v -0.75 c 0,-0.60253 -0.26826,-0.625 -0.80469,-0.625 z m 4,0 c -0.53643,0 -0.80469,1.5e-4 -0.80469,0.625 v 0.75 c 0,0.62485 0.26826,0.625 0.80469,0.625 h 0.39062 c 0.53643,0 0.80469,-1.5e-4 0.80469,-0.625 v -0.75 c 0,-0.60253 -0.26826,-0.625 -0.80469,-0.625 z m 4,0 c -0.53643,0 -0.80469,1.5e-4 -0.80469,0.625 v 0.75 c 0,0.62485 0.26826,0.625 0.80469,0.625 h 0.39062 c 0.53643,0 0.80469,-1.5e-4 0.80469,-0.625 v -0.75 c 0,-0.60253 -0.26826,-0.625 -0.80469,-0.625 z m -8,4 c -0.53643,0 -0.80469,1.5e-4 -0.80469,0.625 v 0.75 c 0,0.62485 0.26826,0.625 0.80469,0.625 h 0.39062 c 0.53643,0 0.80469,-1.5e-4 0.80469,-0.625 v -0.75 c 0,-0.60253 -0.26826,-0.625 -0.80469,-0.625 z m 4,0 c -0.53643,0 -0.80469,1.5e-4 -0.80469,0.625 v 0.75 c 0,0.62485 0.26826,0.625 0.80469,0.625 h 0.39062 c 0.53643,0 0.80469,-1.5e-4 0.80469,-0.625 v -0.75 c 0,-0.60253 -0.26826,-0.625 -0.80469,-0.625 z m 4,0 c -0.53643,0 -0.80469,1.5e-4 -0.80469,0.625 v 0.75 c 0,0.62485 0.26826,0.625 0.80469,0.625 h 0.39062 c 0.53643,0 0.80469,-1.5e-4 0.80469,-0.625 v -0.75 c 0,-0.60253 -0.26826,-0.625 -0.80469,-0.625 z m -8,4 c -0.53643,0 -0.80469,1.5e-4 -0.80469,0.625 v 0.75 c 0,0.62485 0.26826,0.625 0.80469,0.625 h 0.39062 c 0.53643,0 0.80469,-1.5e-4 0.80469,-0.625 v -0.75 c 0,-0.60253 -0.26826,-0.625 -0.80469,-0.625 z m 4,0 c -0.53643,0 -0.80469,1.5e-4 -0.80469,0.625 v 0.75 c 0,0.62485 0.26826,0.625 0.80469,0.625 h 0.39062 c 0.53643,0 0.80469,-1.5e-4 0.80469,-0.625 v -0.75 c 0,-0.60253 -0.26826,-0.625 -0.80469,-0.625 z m 4,0 c -0.53643,0 -0.80469,1.5e-4 -0.80469,0.625 v 0.75 c 0,0.62485 0.26826,0.625 0.80469,0.625 h 0.39062 c 0.53643,0 0.80469,-1.5e-4 0.80469,-0.625 v -0.75 c 0,-0.60253 -0.26826,-0.625 -0.80469,-0.625 z"
       id="path4216-6"
       style="color:#000000;display:inline;overflow:visible;visibility:visible;opacity:1;fill:#5884f4;fill-opacity:1;fill-rule:nonzero;stroke:none;stroke-width:10;marker:none;enable-background:accumulate"
       inkscape:connector-curvature="0" />
    <path
       style="color:#000000;display:inline;overflow:visible;visibility:visible;opacity:0.3;fill:#ffffff;fill-opacity:1;fill-rule:nonzero;stroke:none;stroke-width:14;marker:none;enable-background:accumulate"
       d="M 2.1269531 1 C 1.3759511 1 1 1.00021 1 1.875 L 1 2.375 C 1 1.50021 1.3759511 1.5 2.1269531 1.5 L 2.6738281 1.5 C 3.4248301 1.5 3.8007812 1.531458 3.8007812 2.375 L 3.8007812 1.875 C 3.8007812 1.031458 3.4248301 1 2.6738281 1 L 2.1269531 1 z M 7.7265625 1 C 6.9755605 1 6.5996094 1.00021 6.5996094 1.875 L 6.5996094 2.375 C 6.5996094 1.50021 6.9755605 1.5 7.7265625 1.5 L 8.2734375 1.5 C 9.0244395 1.5 9.4003906 1.531458 9.4003906 2.375 L 9.4003906 1.875 C 9.4003906 1.031458 9.0244395 1 8.2734375 1 L 7.7265625 1 z M 13.326172 1 C 12.57517 1 12.199219 1.00021 12.199219 1.875 L 12.199219 2.375 C 12.199219 1.50021 12.57517 1.5 13.326172 1.5 L 13.873047 1.5 C 14.624049 1.5 15 1.531458 15 2.375 L 15 1.875 C 15 1.031458 14.624049 1 13.873047 1 L 13.326172 1 z M 2.1269531 6.5996094 C 1.3759511 6.5996094 1 6.5998194 1 7.4746094 L 1 7.9746094 C 1 7.0998194 1.3759511 7.0996094 2.1269531 7.0996094 L 2.6738281 7.0996094 C 3.4248301 7.0996094 3.8007812 7.1310674 3.8007812 7.9746094 L 3.8007812 7.4746094 C 3.8007812 6.6310674 3.4248301 6.5996094 2.6738281 6.5996094 L 2.1269531 6.5996094 z M 7.7265625 6.5996094 C 6.9755605 6.5996094 6.5996094 6.5998194 6.5996094 7.4746094 L 6.5996094 7.9746094 C 6.5996094 7.0998194 6.9755605 7.0996094 7.7265625 7.0996094 L 8.2734375 7.0996094 C 9.0244395 7.0996094 9.4003906 7.1310674 9.4003906 7.9746094 L 9.4003906 7.4746094 C 9.4003906 6.6310674 9.0244395 6.5996094 8.2734375 6.5996094 L 7.7265625 6.5996094 z M 13.326172 6.5996094 C 12.57517 6.5996094 12.199219 6.5998194 12.199219 7.4746094 L 12.199219 7.9746094 C 12.199219 7.0998194 12.57517 7.0996094 13.326172 7.0996094 L 13.873047 7.0996094 C 14.624049 7.0996094 15 7.1310674 15 7.9746094 L 15 7.4746094 C 15 6.6310674 14.624049 6.5996094 13.873047 6.5996094 L 13.326172 6.5996094 z M 2.1269531 12.199219 C 1.3759511 12.199219 1 12.199429 1 13.074219 L 1 13.574219 C 1 12.699429 1.3759511 12.699219 2.1269531 12.699219 L 2.6738281 12.699219 C 3.4248301 12.699219 3.8007812 12.730677 3.8007812 13.574219 L 3.8007812 13.074219 C 3.8007812 12.230677 3.4248301 12.199219 2.6738281 12.199219 L 2.1269531 12.199219 z M 7.7265625 12.199219 C 6.9755605 12.199219 6.5996094 12.199429 6.5996094 13.074219 L 6.5996094 13.574219 C 6.5996094 12.699429 6.9755605 12.699219 7.7265625 12.699219 L 8.2734375 12.699219 C 9.0244395 12.699219 9.4003906 12.730677 9.4003906 13.574219 L 9.4003906 13.074219 C 9.4003906 12.230677 9.0244395 12.199219 8.2734375 12.199219 L 7.7265625 12.199219 z M 13.326172 12.199219 C 12.57517 12.199219 12.199219 12.199429 12.199219 13.074219 L 12.199219 13.574219 C 12.199219 12.699429 12.57517 12.699219 13.326172 12.699219 L 13.873047 12.699219 C 14.624049 12.699219 15 12.730677 15 13.574219 L 15 13.074219 C 15 12.230677 14.624049 12.199219 13.873047 12.199219 L 13.326172 12.199219 z "
       transform="matrix(0.71428571,0,0,0.71428571,514.28586,486.28572)"
       id="path866" />
    <path
       id="path871"
       d="m 524.19518,497.00001 c 0.53643,0 0.80497,-1.5e-4 0.80497,-0.625 v -0.35715 c 0,0.62485 -0.26854,0.625 -0.80497,0.625 h -0.39062 c -0.53643,0 -0.80497,-0.0225 -0.80497,-0.625 v 0.35715 c 0,0.60253 0.26854,0.625 0.80497,0.625 z m -3.99972,0 c 0.53643,0 0.80497,-1.5e-4 0.80497,-0.625 v -0.35715 c 0,0.62485 -0.26854,0.625 -0.80497,0.625 h -0.39062 c -0.53643,0 -0.80497,-0.0225 -0.80497,-0.625 v 0.35715 c 0,0.60253 0.26854,0.625 0.80497,0.625 z m -3.99972,0 c 0.53643,0 0.80497,-1.5e-4 0.80497,-0.625 v -0.35715 c 0,0.62485 -0.26854,0.625 -0.80497,0.625 h -0.39063 c -0.53643,0 -0.80496,-0.0225 -0.80496,-0.625 v 0.35715 c 0,0.60253 0.26853,0.625 0.80496,0.625 z m 7.99944,-3.99972 c 0.53643,0 0.80497,-1.5e-4 0.80497,-0.625 v -0.35715 c 0,0.62485 -0.26854,0.625 -0.80497,0.625 h -0.39062 c -0.53643,0 -0.80497,-0.0225 -0.80497,-0.625 v 0.35715 c 0,0.60253 0.26854,0.625 0.80497,0.625 z m -3.99972,0 c 0.53643,0 0.80497,-1.5e-4 0.80497,-0.625 v -0.35715 c 0,0.62485 -0.26854,0.625 -0.80497,0.625 h -0.39062 c -0.53643,0 -0.80498,-0.0225 -0.80498,-0.625 v 0.35715 c 0,0.60253 0.26855,0.625 0.80498,0.625 z m -3.99972,0 c 0.53643,0 0.80497,-1.5e-4 0.80497,-0.625 v -0.35715 c 0,0.62485 -0.26854,0.625 -0.80497,0.625 h -0.39063 c -0.53643,0 -0.80496,-0.0225 -0.80496,-0.625 v 0.35715 c 0,0.60253 0.26853,0.625 0.80496,0.625 z m 7.99944,-3.99973 c 0.53643,0 0.80497,-1.5e-4 0.80497,-0.625 v -0.35714 c 0,0.62485 -0.26854,0.625 -0.80497,0.625 h -0.39062 c -0.53643,0 -0.80497,-0.0225 -0.80497,-0.625 v 0.35714 c 0,0.60253 0.26854,0.625 0.80497,0.625 z m -3.99972,0 c 0.53643,0 0.80497,-1.5e-4 0.80497,-0.625 v -0.35714 c 0,0.62485 -0.26854,0.625 -0.80497,0.625 h -0.39062 c -0.53643,0 -0.80498,-0.0225 -0.80498,-0.625 v 0.35714 c 0,0.60253 0.26855,0.625 0.80498,0.625 z m -3.99972,0 c 0.53642,0 0.80497,-1.5e-4 0.80497,-0.625 v -0.35714 c 0,0.62485 -0.26854,0.625 -0.80497,0.625 h -0.39063 c -0.53643,0 -0.80497,-0.0225 -0.80497,-0.625 v 0.35714 c 0,0.60253 0.26854,0.625 0.80497,0.625 z"
       style="color:#000000;display:inline;overflow:visible;visibility:visible;opacity:0.2;fill:#000000;fill-opacity:1;fill-rule:nonzero;stroke:none;stroke-width:10;marker:none;enable-background:accumulate"
       inkscape:connector-curvature="0" />
  </g>
  <g
     id="g1833"
     style="display:inline"
     transform="translate(-512,-484)" />
  <g
     id="layer1"
     style="display:inline"
     transform="translate(-512,-484)" />
</svg>

<svg height="16" width="16" xmlns="http://www.w3.org/2000/svg"><g transform="matrix(1.4 0 0 1.4 -720.00021 -680.80001)"><path d="m515.80484 487.00001c-.53643 0-.80469.00015-.80469.625v.75c0 .62485.26826.625.80469.625h.39062c.53643 0 .80469-.00015.80469-.625v-.75c0-.60253-.26826-.625-.80469-.625zm4 0c-.53643 0-.80469.00015-.80469.625v.75c0 .62485.26826.625.80469.625h.39062c.53643 0 .80469-.00015.80469-.625v-.75c0-.60253-.26826-.625-.80469-.625zm4 0c-.53643 0-.80469.00015-.80469.625v.75c0 .62485.26826.625.80469.625h.39062c.53643 0 .80469-.00015.80469-.625v-.75c0-.60253-.26826-.625-.80469-.625zm-8 4c-.53643 0-.80469.00015-.80469.625v.75c0 .62485.26826.625.80469.625h.39062c.53643 0 .80469-.00015.80469-.625v-.75c0-.60253-.26826-.625-.80469-.625zm4 0c-.53643 0-.80469.00015-.80469.625v.75c0 .62485.26826.625.80469.625h.39062c.53643 0 .80469-.00015.80469-.625v-.75c0-.60253-.26826-.625-.80469-.625zm4 0c-.53643 0-.80469.00015-.80469.625v.75c0 .62485.26826.625.80469.625h.39062c.53643 0 .80469-.00015.80469-.625v-.75c0-.60253-.26826-.625-.80469-.625zm-8 4c-.53643 0-.80469.00015-.80469.625v.75c0 .62485.26826.625.80469.625h.39062c.53643 0 .80469-.00015.80469-.625v-.75c0-.60253-.26826-.625-.80469-.625zm4 0c-.53643 0-.80469.00015-.80469.625v.75c0 .62485.26826.625.80469.625h.39062c.53643 0 .80469-.00015.80469-.625v-.75c0-.60253-.26826-.625-.80469-.625zm4 0c-.53643 0-.80469.00015-.80469.625v.75c0 .62485.26826.625.80469.625h.39062c.53643 0 .80469-.00015.80469-.625v-.75c0-.60253-.26826-.625-.80469-.625z" fill="#5884f4"/><path d="m2.1269531 1c-.751002 0-1.1269531.00021-1.1269531.875v.5c0-.87479.3759511-.875 1.1269531-.875h.546875c.751002 0 1.1269531.031458 1.1269531.875v-.5c0-.843542-.3759511-.875-1.1269531-.875zm5.5996094 0c-.751002 0-1.1269531.00021-1.1269531.875v.5c0-.87479.3759511-.875 1.1269531-.875h.546875c.751002 0 1.1269531.031458 1.1269531.875v-.5c0-.843542-.3759511-.875-1.1269531-.875zm5.5996095 0c-.751002 0-1.126953.00021-1.126953.875v.5c0-.87479.375951-.875 1.126953-.875h.546875c.751002 0 1.126953.031458 1.126953.875v-.5c0-.843542-.375951-.875-1.126953-.875zm-11.1992189 5.5996094c-.751002 0-1.1269531.00021-1.1269531.875v.5c0-.87479.3759511-.875 1.1269531-.875h.546875c.751002 0 1.1269531.031458 1.1269531.875v-.5c0-.843542-.3759511-.875-1.1269531-.875zm5.5996094 0c-.751002 0-1.1269531.00021-1.1269531.875v.5c0-.87479.3759511-.875 1.1269531-.875h.546875c.751002 0 1.1269531.031458 1.1269531.875v-.5c0-.843542-.3759511-.875-1.1269531-.875zm5.5996095 0c-.751002 0-1.126953.00021-1.126953.875v.5c0-.87479.375951-.875 1.126953-.875h.546875c.751002 0 1.126953.031458 1.126953.875v-.5c0-.843542-.375951-.875-1.126953-.875zm-11.1992189 5.5996096c-.751002 0-1.1269531.00021-1.1269531.875v.5c0-.87479.3759511-.875 1.1269531-.875h.546875c.751002 0 1.1269531.031458 1.1269531.875v-.5c0-.843542-.3759511-.875-1.1269531-.875zm5.5996094 0c-.751002 0-1.1269531.00021-1.1269531.875v.5c0-.87479.3759511-.875 1.1269531-.875h.546875c.751002 0 1.1269531.031458 1.1269531.875v-.5c0-.843542-.3759511-.875-1.1269531-.875zm5.5996095 0c-.751002 0-1.126953.00021-1.126953.875v.5c0-.87479.375951-.875 1.126953-.875h.546875c.751002 0 1.126953.031458 1.126953.875v-.5c0-.843542-.375951-.875-1.126953-.875z" fill="#fff" opacity=".3" transform="matrix(.71428571 0 0 .71428571 514.28586 486.28572)"/><path d="m524.19518 497.00001c.53643 0 .80497-.00015.80497-.625v-.35715c0 .62485-.26854.625-.80497.625h-.39062c-.53643 0-.80497-.0225-.80497-.625v.35715c0 .60253.26854.625.80497.625zm-3.99972 0c.53643 0 .80497-.00015.80497-.625v-.35715c0 .62485-.26854.625-.80497.625h-.39062c-.53643 0-.80497-.0225-.80497-.625v.35715c0 .60253.26854.625.80497.625zm-3.99972 0c.53643 0 .80497-.00015.80497-.625v-.35715c0 .62485-.26854.625-.80497.625h-.39063c-.53643 0-.80496-.0225-.80496-.625v.35715c0 .60253.26853.625.80496.625zm7.99944-3.99972c.53643 0 .80497-.00015.80497-.625v-.35715c0 .62485-.26854.625-.80497.625h-.39062c-.53643 0-.80497-.0225-.80497-.625v.35715c0 .60253.26854.625.80497.625zm-3.99972 0c.53643 0 .80497-.00015.80497-.625v-.35715c0 .62485-.26854.625-.80497.625h-.39062c-.53643 0-.80498-.0225-.80498-.625v.35715c0 .60253.26855.625.80498.625zm-3.99972 0c.53643 0 .80497-.00015.80497-.625v-.35715c0 .62485-.26854.625-.80497.625h-.39063c-.53643 0-.80496-.0225-.80496-.625v.35715c0 .60253.26853.625.80496.625zm7.99944-3.99973c.53643 0 .80497-.00015.80497-.625v-.35714c0 .62485-.26854.625-.80497.625h-.39062c-.53643 0-.80497-.0225-.80497-.625v.35714c0 .60253.26854.625.80497.625zm-3.99972 0c.53643 0 .80497-.00015.80497-.625v-.35714c0 .62485-.26854.625-.80497.625h-.39062c-.53643 0-.80498-.0225-.80498-.625v.35714c0 .60253.26855.625.80498.625zm-3.99972 0c.53642 0 .80497-.00015.80497-.625v-.35714c0 .62485-.26854.625-.80497.625h-.39063c-.53643 0-.80497-.0225-.80497-.625v.35714c0 .60253.26854.625.80497.625z" opacity=".2"/></g></svg>
